PortfolioPage/assets/social/linkedin.svg

<svg xmlns="http://www.w3.org/2000/svg" width="26" height="26" fill="none">
  <path fill="#696969" d="M6.05214 8.36446H.832593c-.231651 0-.419354.18778-.419354.41935V25.552c0 .2316.187703.4193.419354.4193H6.05214c.23165 0 .41935-.1877.41935-.4193V8.78381c0-.23157-.1877-.41935-.41935-.41935ZM3.44426.0286026C1.54509.0286026.00001526 1.572.00001526 3.46907c0 1.89792 1.54507474 3.4419 3.44424474 3.4419 1.89766 0 3.44148-1.54406 3.44148-3.4419C6.88582 1.572 5.34192.0286026 3.44426.0286026ZM19.3284 7.9477c-2.0963 0-3.646.90119-4.586 1.92517V8.78381c0-.23157-.1877-.41935-.4193-.41935H9.32445c-.23166 0-.41936.18778-.41936.41935V25.552c0 .2316.1877.4193.41936.4193h5.20815c.2316 0 .4193-.1877.4193-.4193v-8.2964c0-2.7957.7594-3.8848 2.7082-3.8848 2.1225 0 2.2911 1.746 2.2911 4.0287v8.1525c0 .2317.1877.4194.4194.4194h5.2101c.2316 0 .4193-.1877.4193-.4194v-9.1976c0-4.157-.7927-8.4067-6.6716-8.4067Z"/>
</svg>

<svg width="26" height="26" viewBox="0 0 26 26" fill="none" xmlns="http://www.w3.org/2000/svg">
    <path d="M6.05214 8.36446H0.832593C0.600942 8.36446 0.413239 8.55224 0.413239 8.78381V25.552C0.413239 25.7836 0.600942 25.9713 0.832593 25.9713H6.05214C6.28379 25.9713 6.47149 25.7836 6.47149 25.552V8.78381C6.47149 8.55224 6.28379 8.36446 6.05214 8.36446Z" fill="#696969"/>
    <path d="M3.44426 0.0286026C1.54509 0.0286026 1.52588e-05 1.572 1.52588e-05 3.46907C1.52588e-05 5.36699 1.54509 6.91097 3.44426 6.91097C5.34192 6.91097 6.88574 5.36691 6.88574 3.46907C6.88582 1.572 5.34192 0.0286026 3.44426 0.0286026Z" fill="#696969"/>
    <path d="M19.3284 7.9477C17.2321 7.9477 15.6824 8.84889 14.7424 9.87287V8.78381C14.7424 8.55224 14.5547 8.36446 14.3231 8.36446H9.32445C9.09279 8.36446 8.90509 8.55224 8.90509 8.78381V25.552C8.90509 25.7836 9.09279 25.9713 9.32445 25.9713H14.5326C14.7642 25.9713 14.9519 25.7836 14.9519 25.552V17.2556C14.9519 14.4599 15.7113 13.3708 17.6601 13.3708C19.7826 13.3708 19.9512 15.1168 19.9512 17.3995V25.552C19.9512 25.7837 20.1389 25.9714 20.3706 25.9714H25.5807C25.8123 25.9714 26 25.7837 26 25.552V16.3544C26 12.1974 25.2073 7.9477 19.3284 7.9477Z" fill="#696969"/>
</svg>
